X: 3368
T: Ben's Birthday
R: slide
M: 12/8
K: Gmajor
|:D|G2 B d2 B c2 B A2 g|f2 d cBA e2 d B2 A|
G2 B d2 B c2 B A2 g|fed cBA G3 G2:|
|:A|B2 G D2 G B2 d g2 e|f2 d a2 g f2 d cBA|
B2 G D2 G B2 d g2 e|fed cBA G3 G2:|

